!!!COM: Scriabin, Alexander
!!!OTL@@FR: Prélude
!!!OTL@@EN: Prelude
!!!OPR@@FR: 7 Préludes
!!!OPR@@EN:
!!!OPS: 17
!!!ONM: 3
!!!ODT: 1895
!!!AGN: Prelude
**kern	**kern	**dynam
*staff2	*staff1	*staff1/2
*Ipiano	*Ipiano	*
*clefF4	*clefG2	*
*k[b-e-a-d-g-]	*k[b-e-a-d-g-]	*
*D-:	*D-:	*
*M3/4	*M3/4	*
=1	=1	=1
*	*^	*
8DD-L	4raa	4rc	.
8AA-	.	.	.
8G-	6aa-	12aa-L	.
.	.	12dd-	.
8A-J	.	.	.
.	12gg-	12gg-J	.
4e-	4raa	12a-L	.
.	.	12b-	.
.	.	12dd-J	.
=2	=2	=2	=2
8DD-L	4raa	4rc	.
8AA-	.	.	.
8G-	6ff	12ffL	.
.	.	12b-	.
8A-J	.	.	.
.	12ee-	12ee-J	.
4c	4raa	12fL	.
.	.	12g-	.
.	.	12b-J	.
=3	=3	=3	=3
*	*^	*^	*
8DD-L	4raa	4rc	4r	4r	.
8GG-	.	.	.	.	.
8E-	6dd-	12dd-L	4r	4r	.
.	.	12g-	.	.	.
8A-J	.	.	.	.	.
.	12cc	12ccJ	.	.	.
4B-	4raa	12d-L	12r	[4d-\	.
.	.	12e-	[6e-\	.	.
.	.	[12g-J	.	.	.
=4	=4	=4	=4	=4	=4
8DD-L	2.ryy	2.g-] 2.b-	2.e-/]	2.d-/]	.
8GG-	.	.	.	.	.
8E-	.	.	.	.	.
8A-J	.	.	.	.	.
4B-	.	.	.	.	.
*	*v	*v	*v	*v	*
=5	=5	=5
8DD-L	4r	.
8AA-	.	.
8G-	12a-L	.
.	12B-	.
8AA-	.	.
.	12fJ	.
8F	12cL	.
.	12d-	.
8BB-J	.	.
.	12fJ	.
=6	=6	=6
8DD-L	12b-L	.
.	12cc	.
8AA-	.	.
.	12b-J	.
8G-	12a-L	.
.	12B-	.
8AA-	.	.
.	12fJ	.
8F	12cL	.
.	12d-	.
8BB-J	.	.
.	12a-J	.
=7	=7	=7
8EE-L	12g-L	.
.	12f	.
8BB-	.	.
.	12g-J	.
8d-	12ffL	.
.	12b-	.
8E-J	.	.
.	12ccJ	.
4g-	12dd-L	.
.	12b-	.
.	12ccJ	.
=8	=8	=8
8AA-L	2.ee-	.
8E-	.	.
8c	.	.
8A-J	.	.
4a-	.	.
=9	=9	=9
*	*^	*
*	*	*^	*
8EE-L	4raa	4rc	4r	.
8BB-	.	.	.	.
8G-	6gg-	12gg-L	4r	.
.	.	12b-	.	.
8BB-	.	.	.	.
.	12ff	12ffJ	.	.
8d-	12g-L	12g-	[4g-/	.
.	12b-	[6b-	.	.
8cJ	.	.	.	.
.	12ccJ	.	.	.
=10	=10	=10	=10	=10
8B-L	4dd-	4b-]	4g-/]	.
8E-	.	.	.	.
8F	12ccL	4rc	4r	.
.	12e-	.	.	.
8G-	.	.	.	.
.	12b-J	.	.	.
8e-	12cL	4c	4r	.
.	12a-	.	.	.
8FJ	.	.	.	.
.	12anJ	.	.	.
*	*	*v	*v	*
=11	=11	=11	=11
8BB-L	4b-	4d-	.
8F	.	.	.
8B-	12d-L	4d-	.
.	12an	.	.
8F	.	.	.
.	12b-J	.	.
8G-	12cc-XL	4e- 4a	.
.	12ccn	.	.
8FJ	.	.	.
.	12ee-J	.	.
*	*v	*v	*
=12	=12	=12
8BB-L	2.d- 2.b- 2.dd-	.
8F	.	.
8d-	.	.
8B-	.	.
8b-	.	.
8FJ	.	.
=13	=13	=13
*	*^	*
*	*	*^	*
8BB-L	4raa	4rc	4r	.
8F	.	.	.	.
8d-	12ddd-L	4rc	4r	.
.	12ff	.	.	.
8F	.	.	.	.
.	12cccJ	.	.	.
8a-	12dd-L	12rc	[4dd-\	.
.	12ff	[6ff	.	.
8gnJ	.	.	.	.
.	12ggnJ	.	.	.
=14	=14	=14	=14	=14
8fL	4aa-	4ff]	4dd-\]	.
8B-	.	.	.	.
8c	12ggnL	4rc	4r	.
.	12b-	.	.	.
8d-	.	.	.	.
.	12ffJ	.	.	.
8b-	12gnL	4g	4r	.
.	12ee-	.	.	.
8cJ	.	.	.	.
.	12eenJ	.	.	.
*	*	*v	*v	*
=15	=15	=15	=15
*^	*	*	*
4.F	8FL	4ff	4a-	.
.	8c	.	.	.
.	8f	12a-L	4a-	.
.	.	12een	.	.
4.E-X	8E-X	.	.	.
.	.	12ffJ	.	.
.	8d-	12ffL	4b-	.
.	.	12gg-	.	.
.	8g-J	.	.	.
.	.	12bb-J	.	.
*v	*v	*	*	*
=16	=16	=16	=16
8AA-L	4aa-	4cc	.
8E-	.	.	.
8c	12a-L	4a-	.
.	12ddn	.	.
8g-	.	.	.
.	12ee-J	.	.
8d-	12ffL	4b-	.
.	12gg-	.	.
8E-J	.	.	.
.	12bb-J	.	.
=17	=17	=17	=17
8AA-L	[4aa-	4cc	.
8E-	.	.	.
8c	12aa-L]	4rc	.
.	12ee-	.	.
8g-J	.	.	.
.	12ddnJ	.	.
4r	12ee-L	4rc	.
.	12ff	.	.
.	12gg-J	.	.
*	*v	*v	*
=18	=18	=18
2.r	16bb-LL	.
.	16aa-	.
.	16ggn	.
.	16aa-JJ	.
.	20bb-LL	.
.	20aa-	.
.	20bb-	.
.	20ccc	.
.	20ddd-JJ	.
.	24fffLL	.
.	24eee-	.
.	24dddn	.
.	24eee-	.
.	24fff	.
.	24ggg-XJJ	.
=19	=19	=19
8DD-L	4bbb-	.
8AA-	.	.
8E-	24aaa-LL	.
.	24ddd-	.
.	24ggg-	.
8B-J	24aa-	.
.	24bb-	.
.	24ddd-JJ	.
4d-	24aa-LL	.
.	24dd-	.
.	24gg-	.
.	24a-	.
.	24b-	.
.	24dd-JJ	.
=20	=20	=20
8DD-L	4gg-	.
8AA-	.	.
8G-	24fffLL	.
.	24bb-	.
.	24eee-	.
8A-J	24ff	.
.	24gg-	.
.	24bb-JJ	.
4c	24ffLL	.
.	24b-	.
.	24ee-	.
.	24f	.
.	24g-	.
.	24b-JJ	.
=21	=21	=21
8DD-L	4ee-	.
8GG-	.	.
8E-	24ddd-LL	.
.	24gg-	.
.	24ccc	.
8A-J	24dd-	.
.	24ee-	.
.	24gg-JJ	.
4B-	24dd-LL	.
.	24g-	.
.	24cc	.
.	24d-	.
.	24e-	.
.	24g-JJ	.
=22	=22	=22
8DD-L	2cc	.
8GG-	.	.
8E-	.	.
8A-J	.	.
4B-	4b-	.
=23	=23	=23
8DD-L	4r	.
8AA-	.	.
8G-	24aa-LL	.
.	24gg-	.
.	24a-	.
8AA-	24b-	.
.	24ff	.
.	24ee-JJ	.
8F	24dd-LL	.
.	24B-	.
.	24f	.
8AA-J	24c	.
.	24d-	.
.	24a-JJ	.
=24	=24	=24
8DD-L	24ee-LL	.
.	24dd-	.
.	24ee-	.
8AA-	24ff	.
.	24aa-	.
.	24eee-JJ	.
8c-X	24ddd-LL	.
.	24ccc-X	.
.	24dd-	.
8D-	24ee-	.
.	24bb-	.
.	24aa-JJ	.
8B-	24gg-LL	.
.	24e-	.
.	24b-	.
8E-J	24f	.
.	24g-	.
.	24b-JJ	.
=25	=25	=25
8GG-L	24a-LL	.
.	24b-	.
.	24a-	.
8E-	24g-	.
.	24a-	.
.	24g-JJ	.
8d-	24fLL	.
.	24g-	.
.	24a-	.
8AA-	24g-	.
.	24b-	.
.	24ffJJ	.
8G-	24ee-LL	.
.	24ff	.
.	24ee-	.
8cJ	24b-	.
.	24cc	.
.	24a-JJ	.
=26	=26	=26
8BB-L	2dd-	.
8F	.	.
8d-	.	.
8F	.	.
8f	[4a-	.
8B-J	.	.
=27	=27	=27
8EE-L	4a-]	.
8BB-	.	.
8d-	24fLL	.
.	24g-	.
.	24a-	.
8AA-	24g-	.
.	24b-	.
.	24ffJJ	.
8G-	24ee-LL	.
.	24ff	.
.	24ee-	.
8cJ	24b-	.
.	24cc	.
.	24a-JJ	.
=28	=28	=28
8DD-L	2.dd-	.
8AA-	.	.
8F	.	.
8AA-J	.	.
4d-	.	.
=29	=29	=29
8DD-L	4r	.
8AA-	.	.
8G-	12dd-L	.
.	12e-	.
8AA-	.	.
.	12cc-XJ	.
8F	12d-L	.
.	12e-	.
8c-XJ	.	.
.	12a-J	.
=30	=30	=30
8DD-L	4r	.
8GG-	.	.
8E-	12a-L	.
.	12B-	.
8GG-	.	.
.	12g-J	.
8D-	12A-L	.
.	12B-	.
8B-J	.	.
.	12d-J	.
=31	=31	=31
8DD-L	4r	.
8GG-	.	.
8E-	12fL	.
.	12B--	.
8GG-	.	.
.	12e-J	.
8D-	12A-L	.
.	12B--	.
8B--J	.	.
.	12d-J	.
=32	=32	=32
*	*^	*
8DD-L	2e-	2.A- 2.d-	.
8AA-	.	.	.
8D-	.	.	.
8AA-	.	.	.
8A-	4f	.	.
8D-J	.	.	.
*	*v	*v	*
=33	=33	=33
8DD-L	4r	.
8AA-	.	.
8G-	12dd-L	.
.	12cc-X	.
8AA-	.	.
.	12d-J	.
8F	12e-L	.
.	12b-	.
8c-XJ	.	.
.	12a-J	.
=34	=34	=34
8DD-L	4r	.
8GG-	.	.
8E-	12a-L	.
.	12g-	.
8GG-	.	.
.	12A-J	.
8D-	12B-L	.
.	12f	.
8B-J	.	.
.	12e-J	.
=35	=35	=35
8DD-L	4r	.
8GG-	.	.
8E-	12g-L	.
.	12f	.
8GG-	.	.
.	12A-J	.
8D-	12B--L	.
.	12e-	.
8B--J	.	.
.	12d-J	.
=36	=36	=36
*	*^	*
8DD-L	2e-	2.A- 2.d-	.
8AA-	.	.	.
8D-	.	.	.
8AA-	.	.	.
8A-	4f	.	.
8D-J	.	.	.
*	*v	*v	*
=37	=37	=37
8DD-L	4r	.
8GG-	.	.
8E-	12g-L	.
.	12f	.
8GG-	.	.
.	12A-J	.
8D-	12B--L	.
.	12e-	.
8B--J	.	.
.	12d-J	.
=38	=38	=38
*	*^	*
8DD-L	2e-	2.A- 2.d-	.
8AA-	.	.	.
8D-	.	.	.
8AA-	.	.	.
8A-	[4f	.	.
8D-J	.	.	.
=39	=39	=39	=39
8DD-L	2f]	[2.A- [2.d-	.
8AA-	.	.	.
8D-	.	.	.
8AA-	.	.	.
8A-	[4f	.	.
8D-J	.	.	.
=40	=40	=40	=40
2.DDD-	2.f]	2.A-] 2.d-]	.
*	*v	*v	*
==	==	==
*-	*-	*-
!!!system-decoration: {(*)}
!!!ENC: Bryan Jacob Bell
!!!END: November 2021 to April 2022
!!!PED: Konstantin Igumnov and Yakov Milstein
!!!PTL: A.N. Skryabin: Polnoe sobranie sochinenii dlia fortepiano (Muzgiz)
